X:13
T:The Plough and the Stars
R:reel
C:Larry Redican
D:Highland Classic, Carl MacKenzie, 2007 S:http://www.cranfordpub.com/recordings/carl.htm
Z:psc -  http://www.cranfordpub.com
L:1/8
Q:333
M:C|
K:F
AG|FDCD FGAc|fefa gfdc|Ac c/c/c dcfd|cAFA G2 AG|
FDCD FGAc|fefa gfdc|Ac c/c/c fdcA|FAGE F2 :|
|:Ac|fcfa gfag|fcfa gfdc|Ac c/c/c dccd|[1cAFA G2 Ac|
fcfa gfag|fcfa gfdc|Ac c/c/c fdcA|FAGE F2 :|
[2cAFA G2 AG|FDCD FGAc|fefa gfdc|Ac c/c/c fdcA|FAGE F2 :|
